source/images/icons/icon-editorial/coyote.svg

<?xml version="1.0" encoding="UTF-8"?>
<svg width="80px" height="80px" viewBox="0 0 80 80" version="1.1" xmlns="http://www.w3.org/2000/svg" xmlns:xlink="http://www.w3.org/1999/xlink">
    <!-- Generator: Sketch 55.2 (78181) - https://sketchapp.com -->
    <title>Illustrative Icons/Coyote</title>
    <desc>Created with Sketch.</desc>
    <g id="Illustrative-Icons/Coyote" stroke="none" stroke-width="1" fill="none" fill-rule="evenodd">
        <path d="M33.8461639,64.9106099 C33.8479087,65.4988251 33.5539337,66.0736123 33.0201366,66.402198 C32.2078791,66.9021937 31.1479114,66.6427847 30.6526325,65.8227918 C29.548561,63.9948707 27.9741195,62.5461912 24.470029,59.8693807 C24.4009026,59.8165744 24.3302252,59.7626181 24.2358787,59.6906178 C24.1185904,59.6011158 24.0549276,59.5525346 24.0011342,59.511475 C23.8100759,59.3656439 23.6691032,59.2578962 23.5305828,59.1517533 C21.4310687,57.5429756 20.2134728,56.5211242 19.096739,55.3464631 C17.5972864,53.769231 16.601771,52.1770572 16.1385244,50.4155441 C16.111116,50.3113229 16.0933695,50.2047538 16.0855142,50.0972141 C15.7326269,45.2661432 16.4926104,41.009665 17.9831108,37.3961815 C18.4217964,36.3326571 18.8946047,35.4018433 19.3717168,34.6074874 C19.5134245,34.3715546 19.6481903,34.1600922 19.7739199,33.9733549 C19.8491082,33.2246729 19.7968062,32.3163525 19.6157844,31.065274 C19.4869845,30.1751099 18.8000196,26.3675777 18.7161737,25.8690729 C18.5234778,24.7234002 18.3609243,23.6486984 18.2188082,22.5518985 C17.3761995,16.1906417 19.9619311,9.4961651 24.52971,5.43579037 C25.557628,4.52205696 27.1796362,5.12622696 27.3733291,6.49498927 C27.3667648,6.44860151 27.3712022,6.46421583 27.3891671,6.5125501 C27.4261669,6.61209764 27.4836725,6.74555026 27.5601067,6.90689419 C27.7233977,7.25158329 27.959959,7.69646349 28.260602,8.2243756 C28.8271477,9.21919738 29.6025953,10.4765319 30.501103,11.8655107 C32.0912637,14.3236971 33.9357278,16.9805534 34.5327804,17.7005536 C35.0207606,18.2809093 35.6067557,19.2234986 36.3135613,20.5055875 C36.4548448,20.7618643 36.5997264,21.0297531 36.7477379,21.3080502 C37.1860302,22.1321439 37.6330837,23.0115955 38.0661199,23.8905798 C38.0973574,23.9539861 38.1280641,24.0164641 38.1582147,24.0779514 L40.8316556,24.0779514 C40.8632226,24.0142799 40.8953917,23.9495395 40.9281334,23.8838001 C41.3655086,23.0056298 41.8162103,22.1270146 42.2568761,21.303865 C42.3949953,21.0458629 42.5302969,20.7968039 42.6623893,20.557664 C43.3835835,19.2520151 43.9768711,18.2937382 44.461311,17.709591 C45.0591108,16.9887521 46.8944643,14.3368438 48.4931006,11.860331 C49.3895748,10.4715663 50.1659265,9.21187316 50.7344641,8.21561707 C51.0361361,7.686993 51.2741341,7.24148633 51.4392241,6.89620223 C51.5167981,6.73395733 51.5754696,6.5995847 51.6136135,6.49897335 C51.632825,6.44830011 51.6381728,6.43010233 51.6314664,6.47362486 C51.8405024,5.11702402 53.4512531,4.52849552 54.4719279,5.43579037 C59.0296214,9.48719978 61.6087114,16.178422 60.7830329,22.5503599 C60.6442444,23.6053082 60.4875501,24.6378837 60.3040575,25.7318024 C60.1717737,26.5204311 60.0937409,26.9585879 59.8303669,28.4131198 C59.6592993,29.3578736 58.7619719,29.9837494 57.8261305,29.8110525 C56.8902892,29.6383555 56.2703174,28.7324827 56.4413853,27.7877288 C56.7018826,26.3490842 56.7784375,25.9192254 56.9072775,25.1511261 C57.0842764,24.0959228 57.2348497,23.1036819 57.3674427,22.0958527 C57.9353613,17.7130852 56.5084459,13.0861839 53.8296743,9.7660465 C53.2234698,10.8468346 52.4005192,12.1774089 51.3794534,13.7591838 C49.7085054,16.3477175 47.8154465,19.0830046 47.102896,19.9422121 C46.8006321,20.3066876 46.2900635,21.1313572 45.6713333,22.2515054 C45.5468898,22.4767978 45.4188472,22.7124946 45.2877134,22.9574483 C44.865012,23.7470409 44.4293364,24.5963637 44.0061071,25.4461315 C43.8578142,25.7438768 43.7217677,26.0202164 43.6010581,26.2678771 C43.5589658,26.3542382 43.5218518,26.4307314 43.4901003,26.4964507 C43.4713129,26.5353367 43.4586508,26.5616496 43.4524978,26.5744842 C43.1647711,27.1746541 42.5624493,27.5558974 41.9019748,27.5558974 L37.0822636,27.5558974 C36.4185509,27.5558974 35.8138772,27.1709478 35.5278545,26.566324 C35.5218264,26.5535814 35.5093734,26.5273622 35.4908708,26.4885708 C35.459574,26.4229559 35.4229737,26.3465686 35.3814464,26.2603153 C35.26233,26.0129073 35.1279824,25.7368271 34.9814294,25.4393516 C34.5631881,24.5903979 34.1318752,23.7419115 33.7124344,22.9532631 C33.5723588,22.6898876 33.4357503,22.4372959 33.303232,22.1969186 C32.7023159,21.1069045 32.2039238,20.3052272 31.8987421,19.9422121 C31.1811619,19.0769398 29.2779357,16.3354397 27.6165693,13.7671782 C26.5928699,12.184669 25.7697678,10.8552581 25.1645429,9.77356968 C22.4816081,13.0982235 21.0548327,17.7219211 21.6341954,22.0958527 C21.7708831,23.1507057 21.9269341,24.1824169 22.112696,25.2868633 C22.1875629,25.7319845 22.8855733,29.6007356 23.0247452,30.5625837 C23.2842187,32.3558595 23.3316512,33.6803123 23.1205064,34.9276674 C23.0722296,35.2128666 22.9542258,35.4813985 22.7771869,35.7089318 C22.7797144,35.7056834 22.7753652,35.7114329 22.7645863,35.7261045 C22.7406765,35.7586496 22.7112212,35.7999771 22.6766661,35.8500112 C22.5709141,36.0031346 22.4500485,36.1902456 22.3176153,36.4107369 C21.9278993,37.0595849 21.5338793,37.835289 21.1635253,38.7331542 C19.890345,41.8197792 19.227542,45.4782721 19.5094275,49.671844 C20.1008184,51.7106187 21.7559952,53.4255989 25.6134953,56.3814544 C25.7499778,56.4860357 25.8894082,56.5926047 26.0788951,56.7372364 C26.1325054,56.7781562 26.1959754,56.8265904 26.3134068,56.9162016 C26.4081561,56.9885091 26.4792326,57.0427702 26.5488789,57.0959737 C28.0155395,58.2163707 28.9496561,58.956972 29.7975578,59.7005884 C29.8479157,59.1465778 29.9422626,58.6023975 30.0784938,58.0648039 C30.3981165,56.8035137 30.860008,55.7786053 31.6943788,54.2640344 C31.7320285,54.1956917 32.0747628,53.5779166 32.1699985,53.4035799 C32.3373234,53.0972779 32.4664468,52.8513474 32.5796553,52.6208346 C32.8552552,52.0596628 33.0281637,51.6020415 33.1205687,51.1765733 C33.1970318,50.8257039 33.233568,50.4344567 33.2368164,50.022942 C32.5853094,50.3808037 31.838461,50.584116 31.0445746,50.584116 C28.507646,50.584116 26.451059,48.5079433 26.451059,45.9468546 C26.451059,43.3857658 28.507646,41.3095933 31.0445746,41.3095933 C32.5355774,41.3095933 33.8606635,42.0267333 34.6998439,43.1379773 C34.7958167,43.2298534 34.8827587,43.3344232 34.9581706,43.4511559 C36.2353683,45.4281761 37.0840009,49.1763018 36.4855061,51.922638 C36.3254887,52.6594244 36.0568562,53.3703899 35.6662562,54.165722 C35.5275481,54.448157 35.3763659,54.7361011 35.1867987,55.0831193 C35.0850007,55.2694691 34.7379349,55.8950514 34.7052199,55.9544366 C34.0034736,57.2282644 33.6449891,58.0237188 33.4161445,58.9267822 C33.1312629,60.0509773 33.1180941,61.2092529 33.4309385,62.5358856 C33.5400541,62.9849786 33.5782799,63.241735 33.6286936,63.7279123 C33.6336349,63.7755658 33.6369081,63.8060953 33.6401974,63.8348124 C33.660382,64.0110413 33.6828453,64.1152277 33.750315,64.3110502 C33.8187012,64.5095331 33.8493795,64.7120391 33.8461639,64.9106099 Z M45.3249479,65.6696053 C45.1204329,65.2628458 45.0737567,64.7759145 45.2339233,64.3110502 C45.3013929,64.1152277 45.3238563,64.0110413 45.3440409,63.8348124 C45.3473302,63.8060953 45.3506034,63.7755658 45.3555447,63.7279123 C45.4059585,63.241735 45.4441842,62.9849786 45.5505518,62.5473647 C45.8661442,61.2092529 45.8529754,60.0509773 45.5680938,58.9267822 C45.3392492,58.0237188 44.9807648,57.2282644 44.2790184,55.9544366 C44.2463034,55.8950514 43.8992377,55.2694691 43.7974396,55.0831193 C43.6078723,54.7361011 43.4566902,54.448157 43.3179821,54.165722 C42.9273822,53.3703899 42.6587496,52.6594244 42.4989961,51.9238509 C41.9002375,49.1763018 42.74887,45.4281761 44.0260677,43.4511559 C44.156267,43.249616 44.3208359,43.0843309 44.5069117,42.9580346 C45.3490814,41.9803595 46.5902742,41.3622894 47.9744631,41.3622894 C50.5113917,41.3622894 52.5679787,43.438462 52.5679787,45.9995507 C52.5679787,48.5606395 50.5113917,50.6368122 47.9744631,50.6368122 C47.1665974,50.6368122 46.4074409,50.4262767 45.7478936,50.0565903 C45.7528275,50.4561693 45.7894669,50.8360777 45.8639337,51.1777864 C45.9560746,51.6020415 46.1289831,52.0596628 46.4045831,52.6208346 C46.5177915,52.8513474 46.6469149,53.0972779 46.8142398,53.4035799 C46.9094756,53.5779166 47.2522099,54.1956917 47.2898596,54.2640344 C48.1242303,55.7786053 48.5861219,56.8035137 48.9057445,58.0648039 C49.0431118,58.6068801 49.1378932,59.1556535 49.1878366,59.7148438 C50.0400658,58.9664211 50.9767266,58.2235298 52.452759,57.0959737 C52.5224053,57.0427702 52.593482,56.9885091 52.6882311,56.9162016 C52.8056625,56.8265904 52.8691327,56.7781562 52.9227428,56.7372364 C53.1122299,56.5926047 53.2516602,56.4860357 53.3881426,56.3814544 C57.2449774,53.4261089 58.9002485,51.7112105 59.4919043,49.6728993 C59.773306,45.4042559 59.0937739,41.695201 57.8037061,38.6357035 C57.4310942,37.7520251 57.8386375,36.730724 58.7139797,36.3545636 C59.5893219,35.9784032 60.6009884,36.3898279 60.9736003,37.2735061 C62.4887954,40.8669108 63.2683625,45.1835823 62.9162951,50.0948461 C62.9085286,50.2031876 62.8907235,50.3105562 62.8631135,50.4155441 C62.3998669,52.1770572 61.4043515,53.769231 59.9048991,55.3464631 C58.7881653,56.5211242 57.5705692,57.5429756 55.4710552,59.1517533 C55.3325347,59.2578962 55.1915622,59.3656439 55.0005039,59.511475 C54.9467105,59.5525346 54.8830476,59.6011158 54.7657594,59.6906178 C54.6714129,59.7626181 54.6007353,59.8165744 54.5316091,59.8693807 C51.0275186,62.5461912 49.4530771,63.9948707 48.3490056,65.8227918 C47.8537267,66.6427847 46.7937588,66.9021937 45.9815015,66.402198 C45.6859886,66.2202911 45.463976,65.962929 45.3249479,65.6696053 Z M41.5513779,71.3312689 C41.0697697,70.2512345 40.4062005,69.7128193 39.3442219,69.7128193 C38.2526848,69.7128193 37.509786,70.2879584 36.9442648,71.4074567 C36.9251365,71.4453227 36.9063927,71.4835311 36.8880318,71.522054 L41.6318369,71.522054 C41.6061219,71.4575398 41.5793062,71.3938994 41.5513779,71.3312689 Z M43.7811403,75 L34.5941092,75 C33.5661831,75 32.7670488,74.0969974 32.8824263,73.0658395 C32.8905261,72.9934488 32.905614,72.8842022 32.9293554,72.742945 C32.9664663,72.5221416 33.0155756,72.2797991 33.078549,72.0206276 C33.2586839,71.2792692 33.5172334,70.5359905 33.8751737,69.8274167 C34.9789342,67.6424271 36.797051,66.2348734 39.3442219,66.2348734 C41.9209513,66.2348734 43.7009497,67.6791508 44.6928768,69.9036045 C45.0126141,70.6206336 45.2290467,71.3705382 45.3663413,72.1177483 C45.4142305,72.3783807 45.4491657,72.6219873 45.47332,72.8439221 C45.4887741,72.9859164 45.4974397,73.0957858 45.50128,73.1687202 C45.5536857,74.16399 44.768413,75 43.7811403,75 Z M31.0445746,47.1061701 C31.6788067,47.1061701 32.1929534,46.5871269 32.1929534,45.9468546 C32.1929534,45.3065824 31.6788067,44.7875392 31.0445746,44.7875392 C30.4103425,44.7875392 29.8961957,45.3065824 29.8961957,45.9468546 C29.8961957,46.5871269 30.4103425,47.1061701 31.0445746,47.1061701 Z M47.9744631,47.1588661 C48.6086952,47.1588661 49.122842,46.6398229 49.122842,45.9995507 C49.122842,45.3592786 48.6086952,44.8402354 47.9744631,44.8402354 C47.340231,44.8402354 46.8260843,45.3592786 46.8260843,45.9995507 C46.8260843,46.6398229 47.340231,47.1588661 47.9744631,47.1588661 Z M57.9096803,34.8806625 C56.9583322,34.8806625 56.1871119,34.1020979 56.1871119,33.1416896 C56.1871119,32.1812812 56.9583322,31.4027166 57.9096803,31.4027166 C58.8610286,31.4027166 59.6322487,32.1812812 59.6322487,33.1416896 C59.6322487,34.1020979 58.8610286,34.8806625 57.9096803,34.8806625 Z" id="Shape" fill="#ADB5BD"></path>
    </g>
</svg>

<svg width="80" height="80">
    <title>
        Illustrative Icons/Coyote
    </title>
    <path d="M33.846 64.91a1.742 1.742 0 0 1-.826 1.492c-.812.5-1.872.24-2.367-.58-1.104-1.827-2.679-3.276-6.183-5.953a598.856 598.856 0 0 0-.94-.717c-2.099-1.609-3.317-2.63-4.433-3.806-1.5-1.577-2.495-3.169-2.958-4.93a1.754 1.754 0 0 1-.053-.319c-.353-4.83.407-9.087 1.897-12.7a20.924 20.924 0 0 1 1.389-2.79c.141-.235.276-.447.402-.634.075-.748.023-1.657-.158-2.908-.129-.89-.816-4.697-.9-5.196a87.673 87.673 0 0 1-.497-3.317c-.843-6.361 1.743-13.056 6.31-17.116 1.029-.914 2.65-.31 2.844 1.059-.006-.046-.002-.03.016.018.037.1.095.233.171.394.163.345.4.79.7 1.317a79.37 79.37 0 0 0 2.241 3.642c1.59 2.458 3.435 5.115 4.032 5.835.488.58 1.074 1.522 1.78 2.805.142.256.287.524.435.802a94.547 94.547 0 0 1 1.41 2.77h2.674l.096-.194c.438-.878.888-1.757 1.329-2.58.138-.258.273-.507.405-.746.722-1.306 1.315-2.264 1.8-2.848.597-.721 2.432-3.373 4.031-5.85a82.13 82.13 0 0 0 2.241-3.644c.302-.529.54-.975.705-1.32.078-.162.136-.296.175-.397.019-.05.024-.069.017-.025.21-1.357 1.82-1.946 2.84-1.038 4.559 4.051 7.138 10.742 6.312 17.114a89.84 89.84 0 0 1-.479 3.182c-.132.788-.21 1.227-.474 2.681a1.724 1.724 0 0 1-2.004 1.398 1.738 1.738 0 0 1-1.385-2.023c.26-1.439.337-1.869.466-2.637.177-1.055.328-2.047.46-3.055.568-4.383-.859-9.01-3.537-12.33-.607 1.08-1.43 2.411-2.45 3.993-1.671 2.589-3.565 5.324-4.277 6.183-.302.365-.813 1.19-1.432 2.31-.124.225-.252.46-.383.705a96.438 96.438 0 0 0-1.836 3.617c-.287.6-.89.982-1.55.982h-4.82a1.721 1.721 0 0 1-1.554-.99 30.421 30.421 0 0 0-.147-.306 101.467 101.467 0 0 0-1.669-3.307c-.14-.263-.276-.516-.409-.756-.6-1.09-1.1-1.892-1.404-2.255-.718-.865-2.621-3.607-4.282-6.175-1.024-1.582-1.847-2.912-2.452-3.993-2.683 3.324-4.11 7.948-3.53 12.322.136 1.055.292 2.086.478 3.19.075.446.773 4.315.912 5.277.26 1.793.307 3.117.096 4.365a1.747 1.747 0 0 1-.344.78c.003-.002-.002.003-.012.018a10.597 10.597 0 0 0-.447.685 17.45 17.45 0 0 0-1.154 2.322c-1.274 3.087-1.936 6.745-1.655 10.939.592 2.039 2.247 3.754 6.104 6.71a304.388 304.388 0 0 0 .936.714c1.467 1.12 2.4 1.861 3.249 2.605.05-.554.144-1.099.28-1.636.32-1.261.782-2.286 1.616-3.801l.476-.86c.167-.307.296-.553.41-.783.275-.561.448-1.019.54-1.444.077-.351.114-.743.117-1.154a4.539 4.539 0 0 1-2.192.561c-2.537 0-4.594-2.076-4.594-4.637 0-2.561 2.057-4.637 4.594-4.637 1.49 0 2.816.717 3.655 1.828.096.092.183.196.258.313 1.277 1.977 2.126 5.725 1.528 8.472-.16.736-.43 1.447-.82 2.243-.138.282-.29.57-.48.917-.101.186-.448.812-.48.871-.703 1.274-1.061 2.07-1.29 2.973-.285 1.124-.298 2.282.015 3.609.11.449.147.706.198 1.192l.011.107c.02.176.043.28.11.476.069.199.1.401.096.6zm11.479.76a1.749 1.749 0 0 1-.091-1.359c.067-.196.09-.3.11-.476a9.87 9.87 0 0 0 .012-.107c.05-.486.088-.743.195-1.18.315-1.339.302-2.497.017-3.621-.229-.903-.587-1.699-1.289-2.973l-.482-.87c-.19-.348-.34-.636-.479-.918-.39-.796-.66-1.507-.819-2.242-.599-2.748.25-6.496 1.527-8.473.13-.201.295-.367.48-.493a4.565 4.565 0 0 1 3.468-1.596c2.537 0 4.594 2.076 4.594 4.638 0 2.56-2.057 4.637-4.594 4.637a4.54 4.54 0 0 1-2.226-.58c.005.4.041.78.116 1.12.092.425.265.883.54 1.444.114.23.243.476.41.783.095.174.438.792.476.86.834 1.515 1.296 2.54 1.616 3.8.137.543.232 1.092.282 1.65.852-.748 1.789-1.49 3.265-2.618a601.196 601.196 0 0 1 .935-.715c3.857-2.955 5.512-4.67 6.104-6.708.281-4.269-.398-7.978-1.688-11.037a1.745 1.745 0 0 1 .91-2.281 1.717 1.717 0 0 1 2.26.919c1.515 3.593 2.294 7.91 1.942 12.82a1.754 1.754 0 0 1-.053.322c-.463 1.761-1.459 3.353-2.958 4.93-1.117 1.175-2.334 2.197-4.434 3.806a307.538 307.538 0 0 1-.94.717c-3.503 2.677-5.078 4.126-6.182 5.954a1.713 1.713 0 0 1-3.024-.153zM41.55 71.33c-.481-1.08-1.145-1.618-2.207-1.618-1.091 0-1.834.575-2.4 1.694l-.056.115h4.744a5.157 5.157 0 0 0-.08-.19zM43.781 75h-9.187a1.733 1.733 0 0 1-1.712-1.934 10.306 10.306 0 0 1 .196-1.045c.18-.742.44-1.485.797-2.194 1.104-2.185 2.922-3.592 5.47-3.592 2.576 0 4.356 1.444 5.348 3.669.32.717.536 1.467.673 2.214a10.051 10.051 0 0 1 .135 1.05A1.732 1.732 0 0 1 43.781 75zM31.045 47.106c.634 0 1.148-.519 1.148-1.16 0-.64-.514-1.158-1.148-1.158-.635 0-1.149.519-1.149 1.159s.514 1.16 1.149 1.16zm16.93.053c.634 0 1.148-.52 1.148-1.16 0-.64-.514-1.159-1.149-1.159-.634 0-1.148.52-1.148 1.16 0 .64.514 1.159 1.148 1.159zM57.91 34.88a1.73 1.73 0 0 1-1.723-1.74c0-.96.771-1.738 1.723-1.738a1.73 1.73 0 0 1 1.722 1.739 1.73 1.73 0 0 1-1.722 1.739z" fill="#ADB5BD" fill-rule="evenodd"/>
</svg>
